X:55
T:Killavil
M:6/8
L:1/8
R:jig
K:Edor
BEE BEE | def edB | BAF FEF | DFA dAF |
BEE BEE | def edB | BAF dAF | FED E3 ::
Bef gfe | faf edB | BAF FEF | DFA dAF |
Bef gfe | fgf edB | BAF dAF | FED E3 :|
